papirus/32x32/apps/netbeans.svg

<svg height="32" viewBox="0 0 32 32.000001" width="32" xmlns="http://www.w3.org/2000/svg"><g transform="translate(0 -1020.3622)"><path d="m16.033108 1022.3633c-.25911-.01-.514884.061-.739314.1939l-10.5875881 6.2748c-.437064.259-.706272.7378-.706206 1.2558v12.5496c-.000066.518.269142.9968.706206 1.2558l10.5875881 6.2749c.437004.2588.975408.2588 1.412412 0l10.587588-6.2749c.437064-.259.706272-.7378.706206-1.2558v-12.5496c.000066-.518-.269142-.9968-.706206-1.2558l-10.587588-6.2748c-.20499-.1215-.43644-.1882-.673098-.1939z" fill="#e36d6d" overflow="visible"/><path d="m16 1050.3622c-.243852 0-.487224-.066-.705726-.1951l-10.5885481-6.2737c-.437064-.2589-.705792-.7382-.705726-1.2562v-12.5499c-.000024-.2107.04446-.4148.126618-.6002l11.8733821 6.8752z" fill="#f78d8d" opacity=".5" overflow="visible"/><path d="m16 1050.3622c.243852 0 .487224-.066.705726-.1951l10.588548-6.2737c.437064-.2589.705792-.7382.705726-1.2562v-12.5499c.000024-.2107-.04446-.4148-.126618-.6002l-11.873382 6.8752z" fill="#e64d4d" opacity=".5" overflow="visible"/><path d="m16.033203 2.0019531c-.25911-.01-.515804.0604594-.740234.1933594l-10.5859378 6.2753906c-.437064.259-.7070972.7378594-.7070312 1.2558594v.9999995c-.000066-.517999.2699672-.9968589.7070312-1.2558589l10.5859378-6.2753906c.22443-.1329.481124-.2033594.740234-.1933594.236658.0057.468838.0718594.673828.1933594l10.585938 6.2753906c.437064.259.707097.7378589.707031 1.2558589v-.9999995c.000066-.518-.269967-.9968594-.707031-1.2558594l-10.585938-6.2753906c-.20499-.1215-.43717-.1876594-.673828-.1933594z" fill="#fff" opacity=".2" overflow="visible" transform="translate(0 1020.3622)"/><path d="m4 21.275391v1c-.000066.518.2699672.996859.7070312 1.255859l10.5859378 6.275391c.437004.2588.977058.2588 1.414062 0l10.585938-6.275391c.437064-.259.707097-.737859.707031-1.255859v-1c .000066.518-.269967.996859-.707031 1.255859l-10.585938 6.275391c-.437004.2588-.977058.2588-1.414062 0l-10.5859378-6.275391c-.437064-.259-.7070972-.737859-.7070312-1.255859z" opacity=".3" overflow="visible" transform="translate(0 1020.3622)"/></g></svg>

<?xml version="1.0" encoding="UTF-8" standalone="no"?>
<!-- Created with Inkscape (http://www.inkscape.org/) -->

<svg
   xmlns:dc="http://purl.org/dc/elements/1.1/"
   xmlns:cc="http://creativecommons.org/ns#"
   xmlns:rdf="http://www.w3.org/1999/02/22-rdf-syntax-ns#"
   xmlns:svg="http://www.w3.org/2000/svg"
   xmlns="http://www.w3.org/2000/svg"
   xmlns:sodipodi="http://sodipodi.sourceforge.net/DTD/sodipodi-0.dtd"
   xmlns:inkscape="http://www.inkscape.org/namespaces/inkscape"
   width="32"
   height="32"
   viewBox="0 0 32 32.000001"
   id="svg4195"
   version="1.1"
   inkscape:version="0.91 r13725"
   sodipodi:docname="netbeans.svg">
  <defs
     id="defs4197" />
  <sodipodi:namedview
     id="base"
     pagecolor="#ffffff"
     bordercolor="#666666"
     borderopacity="1.0"
     inkscape:pageopacity="0.0"
     inkscape:pageshadow="2"
     inkscape:zoom="1"
     inkscape:cx="13.726425"
     inkscape:cy="19.046842"
     inkscape:document-units="px"
     inkscape:current-layer="layer1"
     showgrid="false"
     units="px"
     inkscape:window-width="1600"
     inkscape:window-height="849"
     inkscape:window-x="0"
     inkscape:window-y="0"
     inkscape:window-maximized="1" />
  <metadata
     id="metadata4200">
    <rdf:RDF>
      <cc:Work
         rdf:about="">
        <dc:format>image/svg+xml</dc:format>
        <dc:type
           rdf:resource="http://purl.org/dc/dcmitype/StillImage" />
        <dc:title></dc:title>
      </cc:Work>
    </rdf:RDF>
  </metadata>
  <g
     inkscape:label="Layer 1"
     inkscape:groupmode="layer"
     id="layer1"
     transform="translate(0,-1020.3622)">
    <path
       style="color:#000000;font-style:normal;font-variant:normal;font-weight:normal;font-stretch:normal;font-size:medium;line-height:normal;font-family:sans-serif;text-indent:0;text-align:start;text-decoration:none;text-decoration-line:none;text-decoration-style:solid;text-decoration-color:#000000;letter-spacing:normal;word-spacing:normal;text-transform:none;direction:ltr;block-progression:tb;writing-mode:lr-tb;baseline-shift:baseline;text-anchor:start;white-space:normal;clip-rule:nonzero;display:inline;overflow:visible;visibility:visible;opacity:1;isolation:auto;mix-blend-mode:normal;color-interpolation:sRGB;color-interpolation-filters:linearRGB;solid-color:#000000;solid-opacity:1;fill:#e36d6d;fill-opacity:1;fill-rule:nonzero;stroke:none;stroke-width:4;stroke-linecap:square;stroke-linejoin:round;stroke-miterlimit:4;stroke-dasharray:none;stroke-dashoffset:0;stroke-opacity:1;color-rendering:auto;image-rendering:auto;shape-rendering:auto;text-rendering:auto;enable-background:accumulate"
       d="m 16.033108,1022.3633 c -0.25911,-0.01 -0.514884,0.061 -0.739314,0.1939 l -10.5875881,6.2748 c -0.437064,0.259 -0.706272,0.7378 -0.706206,1.2558 l 0,12.5496 c -6.6e-5,0.518 0.269142,0.9968 0.706206,1.2558 l 10.5875881,6.2749 c 0.437004,0.2588 0.975408,0.2588 1.412412,0 l 10.587588,-6.2749 c 0.437064,-0.259 0.706272,-0.7378 0.706206,-1.2558 l 0,-12.5496 c 6.6e-5,-0.518 -0.269142,-0.9968 -0.706206,-1.2558 l -10.587588,-6.2748 c -0.20499,-0.1215 -0.43644,-0.1882 -0.673098,-0.1939 z"
       id="path4147"
       inkscape:connector-curvature="0"
       sodipodi:nodetypes="cccccccccccccc" />
    <path
       sodipodi:nodetypes="cccccccc"
       inkscape:connector-curvature="0"
       id="path4157"
       d="m 16,1050.3622 c -0.243852,0 -0.487224,-0.066 -0.705726,-0.1951 l -10.5885481,-6.2737 c -0.437064,-0.2589 -0.705792,-0.7382 -0.705726,-1.2562 l 0,-12.5499 c -2.4e-5,-0.2107 0.04446,-0.4148 0.126618,-0.6002 L 16,1036.3623 Z"
       style="color:#000000;font-style:normal;font-variant:normal;font-weight:normal;font-stretch:normal;font-size:medium;line-height:normal;font-family:sans-serif;text-indent:0;text-align:start;text-decoration:none;text-decoration-line:none;text-decoration-style:solid;text-decoration-color:#000000;letter-spacing:normal;word-spacing:normal;text-transform:none;direction:ltr;block-progression:tb;writing-mode:lr-tb;baseline-shift:baseline;text-anchor:start;white-space:normal;clip-rule:nonzero;display:inline;overflow:visible;visibility:visible;opacity:0.5;isolation:auto;mix-blend-mode:normal;color-interpolation:sRGB;color-interpolation-filters:linearRGB;solid-color:#000000;solid-opacity:1;fill:#f78d8d;fill-opacity:1;fill-rule:nonzero;stroke:none;stroke-width:4;stroke-linecap:square;stroke-linejoin:round;stroke-miterlimit:4;stroke-dasharray:none;stroke-dashoffset:0;stroke-opacity:1;color-rendering:auto;image-rendering:auto;shape-rendering:auto;text-rendering:auto;enable-background:accumulate" />
    <path
       style="color:#000000;font-style:normal;font-variant:normal;font-weight:normal;font-stretch:normal;font-size:medium;line-height:normal;font-family:sans-serif;text-indent:0;text-align:start;text-decoration:none;text-decoration-line:none;text-decoration-style:solid;text-decoration-color:#000000;letter-spacing:normal;word-spacing:normal;text-transform:none;direction:ltr;block-progression:tb;writing-mode:lr-tb;baseline-shift:baseline;text-anchor:start;white-space:normal;clip-rule:nonzero;display:inline;overflow:visible;visibility:visible;opacity:0.5;isolation:auto;mix-blend-mode:normal;color-interpolation:sRGB;color-interpolation-filters:linearRGB;solid-color:#000000;solid-opacity:1;fill:#e64d4d;fill-opacity:1;fill-rule:nonzero;stroke:none;stroke-width:4;stroke-linecap:square;stroke-linejoin:round;stroke-miterlimit:4;stroke-dasharray:none;stroke-dashoffset:0;stroke-opacity:1;color-rendering:auto;image-rendering:auto;shape-rendering:auto;text-rendering:auto;enable-background:accumulate"
       d="m 16,1050.3622 c 0.243852,0 0.487224,-0.066 0.705726,-0.1951 l 10.588548,-6.2737 c 0.437064,-0.2589 0.705792,-0.7382 0.705726,-1.2562 l 0,-12.5499 c 2.4e-5,-0.2107 -0.04446,-0.4148 -0.126618,-0.6002 L 16,1036.3623 Z"
       id="path4159"
       inkscape:connector-curvature="0"
       sodipodi:nodetypes="cccccccc" />
    <path
       style="color:#000000;font-style:normal;font-variant:normal;font-weight:normal;font-stretch:normal;font-size:medium;line-height:normal;font-family:sans-serif;text-indent:0;text-align:start;text-decoration:none;text-decoration-line:none;text-decoration-style:solid;text-decoration-color:#000000;letter-spacing:normal;word-spacing:normal;text-transform:none;direction:ltr;block-progression:tb;writing-mode:lr-tb;baseline-shift:baseline;text-anchor:start;white-space:normal;clip-rule:nonzero;display:inline;overflow:visible;visibility:visible;opacity:0.2;isolation:auto;mix-blend-mode:normal;color-interpolation:sRGB;color-interpolation-filters:linearRGB;solid-color:#000000;solid-opacity:1;fill:#ffffff;fill-opacity:1;fill-rule:nonzero;stroke:none;stroke-width:4;stroke-linecap:square;stroke-linejoin:round;stroke-miterlimit:4;stroke-dasharray:none;stroke-dashoffset:0;stroke-opacity:1;color-rendering:auto;image-rendering:auto;shape-rendering:auto;text-rendering:auto;enable-background:accumulate"
       d="M 16.033203 2.0019531 C 15.774093 1.9919531 15.517399 2.0624125 15.292969 2.1953125 L 4.7070312 8.4707031 C 4.2699672 8.7297031 3.999934 9.2085625 4 9.7265625 L 4 10.726562 C 3.999934 10.208563 4.2699672 9.7297031 4.7070312 9.4707031 L 15.292969 3.1953125 C 15.517399 3.0624125 15.774093 2.9919531 16.033203 3.0019531 C 16.269861 3.0076531 16.502041 3.0738125 16.707031 3.1953125 L 27.292969 9.4707031 C 27.730033 9.7297031 28.000066 10.208562 28 10.726562 L 28 9.7265625 C 28.000066 9.2085625 27.730033 8.7297031 27.292969 8.4707031 L 16.707031 2.1953125 C 16.502041 2.0738125 16.269861 2.0076531 16.033203 2.0019531 z "
       transform="translate(0,1020.3622)"
       id="path4891" />
    <path
       style="color:#000000;font-style:normal;font-variant:normal;font-weight:normal;font-stretch:normal;font-size:medium;line-height:normal;font-family:sans-serif;text-indent:0;text-align:start;text-decoration:none;text-decoration-line:none;text-decoration-style:solid;text-decoration-color:#000000;letter-spacing:normal;word-spacing:normal;text-transform:none;direction:ltr;block-progression:tb;writing-mode:lr-tb;baseline-shift:baseline;text-anchor:start;white-space:normal;clip-rule:nonzero;display:inline;overflow:visible;visibility:visible;opacity:0.3;isolation:auto;mix-blend-mode:normal;color-interpolation:sRGB;color-interpolation-filters:linearRGB;solid-color:#000000;solid-opacity:1;fill:#000000;fill-opacity:1;fill-rule:nonzero;stroke:none;stroke-width:4;stroke-linecap:square;stroke-linejoin:round;stroke-miterlimit:4;stroke-dasharray:none;stroke-dashoffset:0;stroke-opacity:1;color-rendering:auto;image-rendering:auto;shape-rendering:auto;text-rendering:auto;enable-background:accumulate"
       d="M 4 21.275391 L 4 22.275391 C 3.999934 22.793391 4.2699672 23.27225 4.7070312 23.53125 L 15.292969 29.806641 C 15.729973 30.065441 16.270027 30.065441 16.707031 29.806641 L 27.292969 23.53125 C 27.730033 23.27225 28.000066 22.793391 28 22.275391 L 28 21.275391 C 28.000066 21.793391 27.730033 22.27225 27.292969 22.53125 L 16.707031 28.806641 C 16.270027 29.065441 15.729973 29.065441 15.292969 28.806641 L 4.7070312 22.53125 C 4.2699672 22.27225 3.999934 21.793391 4 21.275391 z "
       transform="translate(0,1020.3622)"
       id="path4896" />
  </g>
</svg>
